X: 8
T: The Dawning Of The Day
R: barndance
M: 4/4
L: 1/8
K: Amaj
AB |c2 c2 c2 Bc | e2 e2 f2 ec | A2 cB A2 B2 | A6 e2 |
f3 e f2 a2 | c3 B A2 cd | e2 c2 a2 c2 | B6 ce |
f3 e f2 a2 | c3 B A2 cd | e2 c2 a2 c2 | B6 AB |
c2 c2 c2 Bc | e2 e2 f2 ec | A2 cB A2 B2 | A6 |]


Tune 1441	Setting 1441

